/* XPM */
static char *wall_east[] = {
"64 64 4 1",
"B	c #5dade2",
"M	c #387047",
"m	c #b4c6d7",
"C	c #35485c",
"mBBBBBBmBBBBBBBBmBBBBBBmBBBBBBBBmBBBBBBmBBBBBBBBmBBBBBBmBBBBBBBB",
"BBBBBBBBmBBMMBBBBBBBBBBBmBBMMBBBBBBBBBBBmBBMMBBBBBBBBBBBmBBMMBBB",
"BBBBCCBBmBBMMBBBBBBCCBBBmBBMMBBBBBBCCBBBmBBMMBBBBBBCCBBBmBBMMBBB",
"BBBBCCBBmBBBBBBBBBBCCBBBmBBBBBBBBBBCCBBBmBBBBBBBBBBCCBBBmBBBBBBB",
"BBBBBBBBmBBBBBBBBBBBBBBBmBBBBBBBBBBBBBBBmBBBBBBBBBBBBBBBmBBBBBBB",
"mmmmmmmmmmmmmmmmmmmmmmmmmmmmmmmmmmmmmmmmmmmmmmmmmmmmmmmmmmmmmmmm",
"BBBBMMBBBBBBBBBBmBBBBCCBBBBBBBBBmBBBBCCBBBBBBBBBmBBBBCCBBBBBBBBB",
"mmmmmmmmmmmmmmmmmmmmmmmmmmmmmmmmmmmmmmmmmmmmmmmmmmmmmmmmmmmmmmmm",
"mBBBBBBmBBBBBBBBmBBBBBBmBBBBBBBBmBBBBBBmBBBBBBBBmBBBBBBmBBBBBBBB",
"BBBBBBBBmBBMMBBBBBBBBBBBmBBMMBBBBBBBBBBBmBBMMBBBBBBBBBBBmBBMMBBB",
"BBBBCCBBmBBMMBBBBBBCCBBBmBBMMBBBBBBCCBBBmBBMMBBBBBBCCBBBmBBMMBBB",
"BBBBCCBBmBBBBBBBBBBCCBBBmBBBBBBBBBBCCBBBmBBBBBBBBBBCCBBBmBBBBBBB",
"BBBBBBBBmBBBBBBBBBBBBBBBmBBBBBBBBBBBBBBBmBBBBBBBBBBBBBBBmBBBBBBB",
"mmmmmmmmmmmmmmmmmmmmmmmmmmmmmmmmmmmmmmmmmmmmmmmmmmmmmmmmmmmmmmmm",
"BBBBMMBBBBBBBBBBmBBBBCCBBBBBBBBBmBBBBCCBBBBBBBBBmBBBBCCBBBBBBBBB",
"mmmmmmmmmmmmmmmmmmmmmmmmmmmmmmmmmmmmmmmmmmmmmmmmmmmmmmmmmmmmmmmm",
"mBBBBBBmBBBBBBBBmBBBBBBmBBBBBBBBmBBBBBBmBBBBBBBBmBBBBBBmBBBBBBBB",
"BBBBBBBBmBBMMBBBBBBBBBBBmBBMMBBBBBBBBBBBmBBMMBBBBBBBBBBBmBBMMBBB",
"BBBBCCBBmBBMMBBBBBBCCBBBmBBMMBBBBBBCCBBBmBBMMBBBBBBCCBBBmBBMMBBB",
"BBBBCCBBmBBBBBBBBBBCCBBBmBBBBBBBBBBCCBBBmBBBBBBBBBBCCBBBmBBBBBBB",
"BBBBBBBBmBBBBBBBBBBBBBBBmBBBBBBBBBBBBBBBmBBBBBBBBBBBBBBBmBBBBBBB",
"mmmmmmmmmmmmmmmmmmmmmmmmmmmmmmmmmmmmmmmmmmmmmmmmmmmmmmmmmmmmmmmm",
"BBBBMMBBBBBBBBBBmBBBBCCBBBBBBBBBmBBBBCCBBBBBBBBBmBBBBCCBBBBBBBBB",
"mmmmmmmmmmmmmmmmmmmmmmmmmmmmmmmmmmmmmmmmmmmmmmmmmmmmmmmmmmmmmmmm",
"mBBBBBBmBBBBBBBBmBBBBBBmBBBBBBBBmBBBBBBmBBBBBBBBmBBBBBBmBBBBBBBB",
"BBBBBBBBmBBMMBBBBBBBBBBBmBBMMBBBBBBBBBBBmBBMMBBBBBBBBBBBmBBMMBBB",
"BBBBCCBBmBBMMBBBBBBCCBBBmBBMMBBBBBBCCBBBmBBMMBBBBBBCCBBBmBBMMBBB",
"BBBBCCBBmBBBBBBBBBBCCBBBmBBBBBBBBBBCCBBBmBBBBBBBBBBCCBBBmBBBBBBB",
"BBBBBBBBmBBBBBBBBBBBBBBBmBBBBBBBBBBBBBBBmBBBBBBBBBBBBBBBmBBBBBBB",
"mmmmmmmmmmmmmmmmmmmmmmmmmmmmmmmmmmmmmmmmmmmmmmmmmmmmmmmmmmmmmmmm",
"BBBBMMBBBBBBBBBBmBBBBCCBBBBBBBBBmBBBBCCBBBBBBBBBmBBBBCCBBBBBBBBB",
"mmmmmmmmmmmmmmmmmmmmmmmmmmmmmmmmmmmmmmmmmmmmmmmmmmmmmmmmmmmmmmmm",
"mBBBBBBmBBBBBBBBmBBBBBBmBBBBBBBBmBBBBBBmBBBBBBBBmBBBBBBmBBBBBBBB",
"BBBBBBBBmBBMMBBBBBBBBBBBmBBMMBBBBBBBBBBBmBBMMBBBBBBBBBBBmBBMMBBB",
"BBBBCCBBmBBMMBBBBBBCCBBBmBBMMBBBBBBCCBBBmBBMMBBBBBBCCBBBmBBMMBBB",
"BBBBCCBBmBBBBBBBBBBCCBBBmBBBBBBBBBBCCBBBmBBBBBBBBBBCCBBBmBBBBBBB",
"BBBBBBBBmBBBBBBBBBBBBBBBmBBBBBBBBBBBBBBBmBBBBBBBBBBBBBBBmBBBBBBB",
"mmmmmmmmmmmmmmmmmmmmmmmmmmmmmmmmmmmmmmmmmmmmmmmmmmmmmmmmmmmmmmmm",
"BBBBMMBBBBBBBBBBmBBBBCCBBBBBBBBBmBBBBCCBBBBBBBBBmBBBBCCBBBBBBBBB",
"mmmmmmmmmmmmmmmmmmmmmmmmmmmmmmmmmmmmmmmmmmmmmmmmmmmmmmmmmmmmmmmm",
"mBBBBBBmBBBBBBBBmBBBBBBmBBBBBBBBmBBBBBBmBBBBBBBBmBBBBBBmBBBBBBBB",
"BBBBBBBBmBBMMBBBBBBBBBBBmBBMMBBBBBBBBBBBmBBMMBBBBBBBBBBBmBBMMBBB",
"BBBBCCBBmBBMMBBBBBBCCBBBmBBMMBBBBBBCCBBBmBBMMBBBBBBCCBBBmBBMMBBB",
"BBBBCCBBmBBBBBBBBBBCCBBBmBBBBBBBBBBCCBBBmBBBBBBBBBBCCBBBmBBBBBBB",
"BBBBBBBBmBBBBBBBBBBBBBBBmBBBBBBBBBBBBBBBmBBBBBBBBBBBBBBBmBBBBBBB",
"mmmmmmmmmmmmmmmmmmmmmmmmmmmmmmmmmmmmmmmmmmmmmmmmmmmmmmmmmmmmmmmm",
"BBBBMMBBBBBBBBBBmBBBBCCBBBBBBBBBmBBBBCCBBBBBBBBBmBBBBCCBBBBBBBBB",
"mmmmmmmmmmmmmmmmmmmmmmmmmmmmmmmmmmmmmmmmmmmmmmmmmmmmmmmmmmmmmmmm",
"mBBBBBBmBBBBBBBBmBBBBBBmBBBBBBBBmBBBBBBmBBBBBBBBmBBBBBBmBBBBBBBB",
"BBBBBBBBmBBMMBBBBBBBBBBBmBBMMBBBBBBBBBBBmBBMMBBBBBBBBBBBmBBMMBBB",
"BBBBCCBBmBBMMBBBBBBCCBBBmBBMMBBBBBBCCBBBmBBMMBBBBBBCCBBBmBBMMBBB",
"BBBBCCBBmBBBBBBBBBBCCBBBmBBBBBBBBBBCCBBBmBBBBBBBBBBCCBBBmBBBBBBB",
"BBBBBBBBmBBBBBBBBBBBBBBBmBBBBBBBBBBBBBBBmBBBBBBBBBBBBBBBmBBBBBBB",
"mmmmmmmmmmmmmmmmmmmmmmmmmmmmmmmmmmmmmmmmmmmmmmmmmmmmmmmmmmmmmmmm",
"BBBBMMBBBBBBBBBBmBBBBCCBBBBBBBBBmBBBBCCBBBBBBBBBmBBBBCCBBBBBBBBB",
"mmmmmmmmmmmmmmmmmmmmmmmmmmmmmmmmmmmmmmmmmmmmmmmmmmmmmmmmmmmmmmmm",
"mBBBBBBmBBBBBBBBmBBBBBBmBBBBBBBBmBBBBBBmBBBBBBBBmBBBBBBmBBBBBBBB",
"BBBBBBBBmBBMMBBBBBBBBBBBmBBMMBBBBBBBBBBBmBBMMBBBBBBBBBBBmBBMMBBB",
"BBBBCCBBmBBMMBBBBBBCCBBBmBBMMBBBBBBCCBBBmBBMMBBBBBBCCBBBmBBMMBBB",
"BBBBCCBBmBBBBBBBBBBCCBBBmBBBBBBBBBBCCBBBmBBBBBBBBBBCCBBBmBBBBBBB",
"BBBBBBBBmBBBBBBBBBBBBBBBmBBBBBBBBBBBBBBBmBBBBBBBBBBBBBBBmBBBBBBB",
"mmmmmmmmmmmmmmmmmmmmmmmmmmmmmmmmmmmmmmmmmmmmmmmmmmmmmmmmmmmmmmmm",
"BBBBMMBBBBBBBBBBmBBBBCCBBBBBBBBBmBBBBCCBBBBBBBBBmBBBBCCBBBBBBBBB",
"mmmmmmmmmmmmmmmmmmmmmmmmmmmmmmmmmmmmmmmmmmmmmmmmmmmmmmmmmmmmmmmm"
};