/* XPM */
static char *wall_north[] = {
"64 64 4 1",
"B	c #3779b4",
"m	c #93b2cc",
"M	c #387047",
"C	c #222f3f",
"BBBBBBBBBBBBBBBBBBBBBBBBBBBBBBBBBBBBBBBBBBBBBBBBBBBBBBBBBBBBBBBB",
"BBBBBMMMBBBBBBBBBBBBBBBCBBBBBBBBBBBBBBMMMBBBBBBBBBBBBBBBCBBBBBBB",
"BBBBMMMMMBBBBBBBBBBBBBCCCBBBBBBBBBBBBMMMMMBBBBBBBBBBBBBCCCBBBBBB",
"BBBBBMMMBBBBBBBBBBBBBBBCBBBBBBBBBBBBBBMMMBBBBBBBBBBBBBBBCBBBBBBB",
"BBBBBBBBBBBBBBBBBBBBBBBBBBBBBBBBBBBBBBBBBBBBBBBBBBBBBBBBBBBBBBBB",
"BBBBBBBBBBBBBBBBBBBBBBBBBBBBBBBBBBBBBBBBBBBBBBBBBBBBBBBBBBBBBBBB",
"BBBBBBBBBBBBBBBBBBBBBBBBBBBBBBBBBBBBBBBBBBBBBBBBBBBBBBBBBBBBBBBB",
"mmmmmmmmmmmmmmmmmmmmmmmmmmmmmmmmmmmmmmmmmmmmmmmmmmmmmmmmmmmmmmmm",
"BBBBBBBBBBBBBBCBBBBBBBBBBBBBBMMMBBBBBBBBBBBBBBBCBBBBBBBBBBBBBBMM",
"BBBBBBBBBBBBBCCCBBBBBBBBBBBBMMMMMBBBBBBBBBBBBBCCCBBBBBBBBBBBBMMM",
"BBBBBBBBBBBBBBCBBBBBBBBBBBBBBMMMBBBBBBBBBBBBBBBCBBBBBBBBBBBBBBMM",
"BBBBBBBBBBBBBBBBBBBBBBBBBBBBBBBBBBBBBBBBBBBBBBBBBBBBBBBBBBBBBBBB",
"BBBBBBBBBBBBBBBBBBBBBBBBBBBBBBBBBBBBBBBBBBBBBBBBBBBBBBBBBBBBBBBB",
"BBBBBBBBBBBBBBBBBBBBBBBBBBBBBBBBBBBBBBBBBBBBBBBBBBBBBBBBBBBBBBBB",
"BBBBBBBBBBBBBBBBBBBBBBBBBBBBBBBBBBBBBBBBBBBBBBBBBBBBBBBBBBBBBBBB",
"mmmmmmmmmmmmmmmmmmmmmmmmmmmmmmmmmmmmmmmmmmmmmmmmmmmmmmmmmmmmmmmm",
"BBBBBBBBBBBBBBBBBBBBBBBBBBBBBBBBBBBBBBBBBBBBBBBBBBBBBBBBBBBBBBBB",
"BBBBBMMMBBBBBBBBBBBBBBBCBBBBBBBBBBBBBBMMMBBBBBBBBBBBBBBBCBBBBBBB",
"BBBBMMMMMBBBBBBBBBBBBBCCCBBBBBBBBBBBBMMMMMBBBBBBBBBBBBBCCCBBBBBB",
"BBBBBMMMBBBBBBBBBBBBBBBCBBBBBBBBBBBBBBMMMBBBBBBBBBBBBBBBCBBBBBBB",
"BBBBBBBBBBBBBBBBBBBBBBBBBBBBBBBBBBBBBBBBBBBBBBBBBBBBBBBBBBBBBBBB",
"BBBBBBBBBBBBBBBBBBBBBBBBBBBBBBBBBBBBBBBBBBBBBBBBBBBBBBBBBBBBBBBB",
"BBBBBBBBBBBBBBBBBBBBBBBBBBBBBBBBBBBBBBBBBBBBBBBBBBBBBBBBBBBBBBBB",
"mmmmmmmmmmmmmmmmmmmmmmmmmmmmmmmmmmmmmmmmmmmmmmmmmmmmmmmmmmmmmmmm",
"BBBBBBBBBBBBBBCBBBBBBBBBBBBBBMMMBBBBBBBBBBBBBBBCBBBBBBBBBBBBBBMM",
"BBBBBBBBBBBBBCCCBBBBBBBBBBBBMMMMMBBBBBBBBBBBBBCCCBBBBBBBBBBBBMMM",
"BBBBBBBBBBBBBBCBBBBBBBBBBBBBBMMMBBBBBBBBBBBBBBBCBBBBBBBBBBBBBBMM",
"BBBBBBBBBBBBBBBBBBBBBBBBBBBBBBBBBBBBBBBBBBBBBBBBBBBBBBBBBBBBBBBB",
"BBBBBBBBBBBBBBBBBBBBBBBBBBBBBBBBBBBBBBBBBBBBBBBBBBBBBBBBBBBBBBBB",
"BBBBBBBBBBBBBBBBBBBBBBBBBBBBBBBBBBBBBBBBBBBBBBBBBBBBBBBBBBBBBBBB",
"BBBBBBBBBBBBBBBBBBBBBBBBBBBBBBBBBBBBBBBBBBBBBBBBBBBBBBBBBBBBBBBB",
"mmmmmmmmmmmmmmmmmmmmmmmmmmmmmmmmmmmmmmmmmmmmmmmmmmmmmmmmmmmmmmmm",
"BBBBBBBBBBBBBBBBBBBBBBBBBBBBBBBBBBBBBBBBBBBBBBBBBBBBBBBBBBBBBBBB",
"BBBBBMMMBBBBBBBBBBBBBBBCBBBBBBBBBBBBBBMMMBBBBBBBBBBBBBBBCBBBBBBB",
"BBBBMMMMMBBBBBBBBBBBBBCCCBBBBBBBBBBBBMMMMMBBBBBBBBBBBBBCCCBBBBBB",
"BBBBBMMMBBBBBBBBBBBBBBBCBBBBBBBBBBBBBBMMMBBBBBBBBBBBBBBBCBBBBBBB",
"BBBBBBBBBBBBBBBBBBBBBBBBBBBBBBBBBBBBBBBBBBBBBBBBBBBBBBBBBBBBBBBB",
"BBBBBBBBBBBBBBBBBBBBBBBBBBBBBBBBBBBBBBBBBBBBBBBBBBBBBBBBBBBBBBBB",
"BBBBBBBBBBBBBBBBBBBBBBBBBBBBBBBBBBBBBBBBBBBBBBBBBBBBBBBBBBBBBBBB",
"mmmmmmmmmmmmmmmmmmmmmmmmmmmmmmmmmmmmmmmmmmmmmmmmmmmmmmmmmmmmmmmm",
"BBBBBBBBBBBBBBCBBBBBBBBBBBBBBMMMBBBBBBBBBBBBBBBCBBBBBBBBBBBBBBMM",
"BBBBBBBBBBBBBCCCBBBBBBBBBBBBMMMMMBBBBBBBBBBBBBCCCBBBBBBBBBBBBMMM",
"BBBBBBBBBBBBBBCBBBBBBBBBBBBBBMMMBBBBBBBBBBBBBBBCBBBBBBBBBBBBBBMM",
"BBBBBBBBBBBBBBBBBBBBBBBBBBBBBBBBBBBBBBBBBBBBBBBBBBBBBBBBBBBBBBBB",
"BBBBBBBBBBBBBBBBBBBBBBBBBBBBBBBBBBBBBBBBBBBBBBBBBBBBBBBBBBBBBBBB",
"BBBBBBBBBBBBBBBBBBBBBBBBBBBBBBBBBBBBBBBBBBBBBBBBBBBBBBBBBBBBBBBB",
"BBBBBBBBBBBBBBBBBBBBBBBBBBBBBBBBBBBBBBBBBBBBBBBBBBBBBBBBBBBBBBBB",
"mmmmmmmmmmmmmmmmmmmmmmmmmmmmmmmmmmmmmmmmmmmmmmmmmmmmmmmmmmmmmmmm",
"BBBBBBBBBBBBBBBBBBBBBBBBBBBBBBBBBBBBBBBBBBBBBBBBBBBBBBBBBBBBBBBB",
"BBBBBMMMBBBBBBBBBBBBBBBCBBBBBBBBBBBBBBMMMBBBBBBBBBBBBBBBCBBBBBBB",
"BBBBMMMMMBBBBBBBBBBBBBCCCBBBBBBBBBBBBMMMMMBBBBBBBBBBBBBCCCBBBBBB",
"BBBBBMMMBBBBBBBBBBBBBBBCBBBBBBBBBBBBBBMMMBBBBBBBBBBBBBBBCBBBBBBB",
"BBBBBBBBBBBBBBBBBBBBBBBBBBBBBBBBBBBBBBBBBBBBBBBBBBBBBBBBBBBBBBBB",
"BBBBBBBBBBBBBBBBBBBBBBBBBBBBBBBBBBBBBBBBBBBBBBBBBBBBBBBBBBBBBBBB",
"BBBBBBBBBBBBBBBBBBBBBBBBBBBBBBBBBBBBBBBBBBBBBBBBBBBBBBBBBBBBBBBB",
"mmmmmmmmmmmmmmmmmmmmmmmmmmmmmmmmmmmmmmmmmmmmmmmmmmmmmmmmmmmmmmmm",
"BBBBBBBBBBBBBBCBBBBBBBBBBBBBBMMMBBBBBBBBBBBBBBBCBBBBBBBBBBBBBBMM",
"BBBBBBBBBBBBBCCCBBBBBBBBBBBBMMMMMBBBBBBBBBBBBBCCCBBBBBBBBBBBBMMM",
"BBBBBBBBBBBBBBCBBBBBBBBBBBBBBMMMBBBBBBBBBBBBBBBCBBBBBBBBBBBBBBMM",
"BBBBBBBBBBBBBBBBBBBBBBBBBBBBBBBBBBBBBBBBBBBBBBBBBBBBBBBBBBBBBBBB",
"BBBBBBBBBBBBBBBBBBBBBBBBBBBBBBBBBBBBBBBBBBBBBBBBBBBBBBBBBBBBBBBB",
"BBBBBBBBBBBBBBBBBBBBBBBBBBBBBBBBBBBBBBBBBBBBBBBBBBBBBBBBBBBBBBBB",
"BBBBBBBBBBBBBBBBBBBBBBBBBBBBBBBBBBBBBBBBBBBBBBBBBBBBBBBBBBBBBBBB",
"mmmmmmmmmmmmmmmmmmmmmmmmmmmmmmmmmmmmmmmmmmmmmmmmmmmmmmmmmmmmmmmm"
};