/* XPM */
static char *wall_south[] = {
"64 64 4 1",
"B	c #4479a6",
"m	c #cfddec",
"M	c #195A37",
"C	c #245031",
"BBBBBBBBmBBBBBBBBBBBBmBBBBBBBBBBmBBBBBBBBBBBBmBBBBBBBBBBmBBBBBBB",
"BBBBBBBBmBBBBBBBBBBBBmBBBBBBBBBBmBBBBBBBBBBBBmBBBBBBBBBBmBBBBBBB",
"BBBBMMBBmBBBBCCBBBBBBmBBBBMMBBBBmBBBBMMBBBBBBmBBBBCCBBBBmBBBBMMB",
"BBBBMMBBmBBBCCCCBBBBBmBBBMMMMBBBmBBBMMMMBBBBBmBBBCCCCBBBmBBBMMMM",
"BBBBBBBBmBBBBCCBBBBBBmBBBBMMBBBBmBBBBMMBBBBBBmBBBBCCBBBBmBBBBMMB",
"BBBBBBBBmBBBBBBBBBBBBmBBBBBBBBBBmBBBBBBBBBBBBmBBBBBBBBBBmBBBBBBB",
"BBBBBBBBmBBBBBBBBBBBBmBBBBBBBBBBmBBBBBBBBBBBBmBBBBBBBBBBmBBBBBBB",
"mmmmmmmmmmmmmmmmmmmmmmmmmmmmmmmmmmmmmmmmmmmmmmmmmmmmmmmmmmmmmmmm",
"BBBBBBBBBBBBmBBBBBBBBBBmBBBBBBBBBBBBmBBBBBBBBBBmBBBBBBBBBBBBmBBB",
"BBBBBBBBBBBBmBBBBBBBBBBmBBBBBBBBBBBBmBBBBBBBBBBmBBBBBBBBBBBBmBBB",
"BBBBCCBBBBBBmBBBBMMBBBBmBBBBCCBBBBBBmBBBBMMBBBBmBBBBCCBBBBBBmBBB",
"BBBCCCCBBBBBmBBBMMMMBBBmBBBCCCCBBBBBmBBBMMMMBBBmBBBCCCCBBBBBmBBB",
"BBBBCCBBBBBBmBBBBMMBBBBmBBBBCCBBBBBBmBBBBMMBBBBmBBBBCCBBBBBBmBBB",
"BBBBBBBBBBBBmBBBBBBBBBBmBBBBBBBBBBBBmBBBBBBBBBBmBBBBBBBBBBBBmBBB",
"BBBBBBBBBBBBmBBBBBBBBBBmBBBBBBBBBBBBmBBBBBBBBBBmBBBBBBBBBBBBmBBB",
"mmmmmmmmmmmmmmmmmmmmmmmmmmmmmmmmmmmmmmmmmmmmmmmmmmmmmmmmmmmmmmmm",
"BBBBBBBBmBBBBBBBBBBBBmBBBBBBBBBBmBBBBBBBBBBBBmBBBBBBBBBBmBBBBBBB",
"BBBBBBBBmBBBBBBBBBBBBmBBBBBBBBBBmBBBBBBBBBBBBmBBBBBBBBBBmBBBBBBB",
"BBBBMMBBmBBBBCCBBBBBBmBBBBMMBBBBmBBBBMMBBBBBBmBBBBCCBBBBmBBBBMMB",
"BBBBMMBBmBBBCCCCBBBBBmBBBMMMMBBBmBBBMMMMBBBBBmBBBCCCCBBBmBBBMMMM",
"BBBBBBBBmBBBBCCBBBBBBmBBBBMMBBBBmBBBBMMBBBBBBmBBBBCCBBBBmBBBBMMB",
"BBBBBBBBmBBBBBBBBBBBBmBBBBBBBBBBmBBBBBBBBBBBBmBBBBBBBBBBmBBBBBBB",
"BBBBBBBBmBBBBBBBBBBBBmBBBBBBBBBBmBBBBBBBBBBBBmBBBBBBBBBBmBBBBBBB",
"mmmmmmmmmmmmmmmmmmmmmmmmmmmmmmmmmmmmmmmmmmmmmmmmmmmmmmmmmmmmmmmm",
"BBBBBBBBBBBBmBBBBBBBBBBmBBBBBBBBBBBBmBBBBBBBBBBmBBBBBBBBBBBBmBBB",
"BBBBBBBBBBBBmBBBBBBBBBBmBBBBBBBBBBBBmBBBBBBBBBBmBBBBBBBBBBBBmBBB",
"BBBBCCBBBBBBmBBBBMMBBBBmBBBBCCBBBBBBmBBBBMMBBBBmBBBBCCBBBBBBmBBB",
"BBBCCCCBBBBBmBBBMMMMBBBmBBBCCCCBBBBBmBBBMMMMBBBmBBBCCCCBBBBBmBBB",
"BBBBCCBBBBBBmBBBBMMBBBBmBBBBCCBBBBBBmBBBBMMBBBBmBBBBCCBBBBBBmBBB",
"BBBBBBBBBBBBmBBBBBBBBBBmBBBBBBBBBBBBmBBBBBBBBBBmBBBBBBBBBBBBmBBB",
"BBBBBBBBBBBBmBBBBBBBBBBmBBBBBBBBBBBBmBBBBBBBBBBmBBBBBBBBBBBBmBBB",
"mmmmmmmmmmmmmmmmmmmmmmmmmmmmmmmmmmmmmmmmmmmmmmmmmmmmmmmmmmmmmmmm",
"BBBBBBBBmBBBBBBBBBBBBmBBBBBBBBBBmBBBBBBBBBBBBmBBBBBBBBBBmBBBBBBB",
"BBBBBBBBmBBBBBBBBBBBBmBBBBBBBBBBmBBBBBBBBBBBBmBBBBBBBBBBmBBBBBBB",
"BBBBMMBBmBBBBCCBBBBBBmBBBBMMBBBBmBBBBMMBBBBBBmBBBBCCBBBBmBBBBMMB",
"BBBBMMBBmBBBCCCCBBBBBmBBBMMMMBBBmBBBMMMMBBBBBmBBBCCCCBBBmBBBMMMM",
"BBBBBBBBmBBBBCCBBBBBBmBBBBMMBBBBmBBBBMMBBBBBBmBBBBCCBBBBmBBBBMMB",
"BBBBBBBBmBBBBBBBBBBBBmBBBBBBBBBBmBBBBBBBBBBBBmBBBBBBBBBBmBBBBBBB",
"BBBBBBBBmBBBBBBBBBBBBmBBBBBBBBBBmBBBBBBBBBBBBmBBBBBBBBBBmBBBBBBB",
"mmmmmmmmmmmmmmmmmmmmmmmmmmmmmmmmmmmmmmmmmmmmmmmmmmmmmmmmmmmmmmmm",
"BBBBBBBBBBBBmBBBBBBBBBBmBBBBBBBBBBBBmBBBBBBBBBBmBBBBBBBBBBBBmBBB",
"BBBBBBBBBBBBmBBBBBBBBBBmBBBBBBBBBBBBmBBBBBBBBBBmBBBBBBBBBBBBmBBB",
"BBBBCCBBBBBBmBBBBMMBBBBmBBBBCCBBBBBBmBBBBMMBBBBmBBBBCCBBBBBBmBBB",
"BBBCCCCBBBBBmBBBMMMMBBBmBBBCCCCBBBBBmBBBMMMMBBBmBBBCCCCBBBBBmBBB",
"BBBBCCBBBBBBmBBBBMMBBBBmBBBBCCBBBBBBmBBBBMMBBBBmBBBBCCBBBBBBmBBB",
"BBBBBBBBBBBBmBBBBBBBBBBmBBBBBBBBBBBBmBBBBBBBBBBmBBBBBBBBBBBBmBBB",
"BBBBBBBBBBBBmBBBBBBBBBBmBBBBBBBBBBBBmBBBBBBBBBBmBBBBBBBBBBBBmBBB",
"mmmmmmmmmmmmmmmmmmmmmmmmmmmmmmmmmmmmmmmmmmmmmmmmmmmmmmmmmmmmmmmm",
"BBBBBBBBmBBBBBBBBBBBBmBBBBBBBBBBmBBBBBBBBBBBBmBBBBBBBBBBmBBBBBBB",
"BBBBBBBBmBBBBBBBBBBBBmBBBBBBBBBBmBBBBBBBBBBBBmBBBBBBBBBBmBBBBBBB",
"BBBBMMBBmBBBBCCBBBBBBmBBBBMMBBBBmBBBBMMBBBBBBmBBBBCCBBBBmBBBBMMB",
"BBBBMMBBmBBBCCCCBBBBBmBBBMMMMBBBmBBBMMMMBBBBBmBBBCCCCBBBmBBBMMMM",
"BBBBBBBBmBBBBCCBBBBBBmBBBBMMBBBBmBBBBMMBBBBBBmBBBBCCBBBBmBBBBMMB",
"BBBBBBBBmBBBBBBBBBBBBmBBBBBBBBBBmBBBBBBBBBBBBmBBBBBBBBBBmBBBBBBB",
"BBBBBBBBmBBBBBBBBBBBBmBBBBBBBBBBmBBBBBBBBBBBBmBBBBBBBBBBmBBBBBBB",
"mmmmmmmmmmmmmmmmmmmmmmmmmmmmmmmmmmmmmmmmmmmmmmmmmmmmmmmmmmmmmmmm",
"BBBBBBBBBBBBmBBBBBBBBBBmBBBBBBBBBBBBmBBBBBBBBBBmBBBBBBBBBBBBmBBB",
"BBBBBBBBBBBBmBBBBBBBBBBmBBBBBBBBBBBBmBBBBBBBBBBmBBBBBBBBBBBBmBBB",
"BBBBCCBBBBBBmBBBBMMBBBBmBBBBCCBBBBBBmBBBBMMBBBBmBBBBCCBBBBBBmBBB",
"BBBCCCCBBBBBmBBBMMMMBBBmBBBCCCCBBBBBmBBBMMMMBBBmBBBCCCCBBBBBmBBB",
"BBBBCCBBBBBBmBBBBMMBBBBmBBBBCCBBBBBBmBBBBMMBBBBmBBBBCCBBBBBBmBBB",
"BBBBBBBBBBBBmBBBBBBBBBBmBBBBBBBBBBBBmBBBBBBBBBBmBBBBBBBBBBBBmBBB",
"BBBBBBBBBBBBmBBBBBBBBBBmBBBBBBBBBBBBmBBBBBBBBBBmBBBBBBBBBBBBmBBB",
"mmmmmmmmmmmmmmmmmmmmmmmmmmmmmmmmmmmmmmmmmmmmmmmmmmmmmmmmmmmmmmmm"
};