/* XPM */
static char *wall_west[] = {
"64 64 3 1",
"B	c #3799d4",
"m	c #bcdcec",
"M	c #0e3d62",
"BBBBBBmBBBBBBBBBBBBmBBBBBBBBBBBBmBBBBBBBBBBBBmBBBBBBBBBBBBmBBBBB",
"BBBBmBBmBBBBMMBBBBmBBmBBBBMMBBBBmBBmBBBBMMBBBBmBBmBBBBMMBBmBBmBB",
"BBmBBBBBBmBBMMBBmBBBBBBmBBMMBBmBBBBBBmBBMMBBmBBBBBBmBBMMmBBBBBBm",
"mBBBBBBBBBBmmmmBBBBBBBBBBmmmmBBBBBBBBBBmmmmBBBBBBBBBBmmmmBBBBBBB",
"BBmBBBBBBmBBMMBBmBBBBBBmBBMMBBmBBBBBBmBBMMBBmBBBBBBmBBMMmBBBBBBm",
"BBBBmBBmBBBBMMBBBBmBBmBBBBMMBBBBmBBmBBBBMMBBBBmBBmBBBBMMBBmBBmBB",
"BBBBBBmBBBBBBBBBBBBmBBBBBBBBBBBBmBBBBBBBBBBBBmBBBBBBBBBBBBmBBBBB",
"mmmmmmmmmmmmmmmmmmmmmmmmmmmmmmmmmmmmmmmmmmmmmmmmmmmmmmmmmmmmmmmm",
"BBBBBBmBBBBBBBBBBBBmBBBBBBBBBBBBmBBBBBBBBBBBBmBBBBBBBBBBBBmBBBBB",
"BBBBmBBmBBBBMMBBBBmBBmBBBBMMBBBBmBBmBBBBMMBBBBmBBmBBBBMMBBmBBmBB",
"BBmBBBBBBmBBMMBBmBBBBBBmBBMMBBmBBBBBBmBBMMBBmBBBBBBmBBMMmBBBBBBm",
"mBBBBBBBBBBmmmmBBBBBBBBBBmmmmBBBBBBBBBBmmmmBBBBBBBBBBmmmmBBBBBBB",
"BBmBBBBBBmBBMMBBmBBBBBBmBBMMBBmBBBBBBmBBMMBBmBBBBBBmBBMMmBBBBBBm",
"BBBBmBBmBBBBMMBBBBmBBmBBBBMMBBBBmBBmBBBBMMBBBBmBBmBBBBMMBBmBBmBB",
"BBBBBBmBBBBBBBBBBBBmBBBBBBBBBBBBmBBBBBBBBBBBBmBBBBBBBBBBBBmBBBBB",
"mmmmmmmmmmmmmmmmmmmmmmmmmmmmmmmmmmmmmmmmmmmmmmmmmmmmmmmmmmmmmmmm",
"BBBBBBmBBBBBBBBBBBBmBBBBBBBBBBBBmBBBBBBBBBBBBmBBBBBBBBBBBBmBBBBB",
"BBBBmBBmBBBBMMBBBBmBBmBBBBMMBBBBmBBmBBBBMMBBBBmBBmBBBBMMBBmBBmBB",
"BBmBBBBBBmBBMMBBmBBBBBBmBBMMBBmBBBBBBmBBMMBBmBBBBBBmBBMMmBBBBBBm",
"mBBBBBBBBBBmmmmBBBBBBBBBBmmmmBBBBBBBBBBmmmmBBBBBBBBBBmmmmBBBBBBB",
"BBmBBBBBBmBBMMBBmBBBBBBmBBMMBBmBBBBBBmBBMMBBmBBBBBBmBBMMmBBBBBBm",
"BBBBmBBmBBBBMMBBBBmBBmBBBBMMBBBBmBBmBBBBMMBBBBmBBmBBBBMMBBmBBmBB",
"BBBBBBmBBBBBBBBBBBBmBBBBBBBBBBBBmBBBBBBBBBBBBmBBBBBBBBBBBBmBBBBB",
"mmmmmmmmmmmmmmmmmmmmmmmmmmmmmmmmmmmmmmmmmmmmmmmmmmmmmmmmmmmmmmmm",
"BBBBBBmBBBBBBBBBBBBmBBBBBBBBBBBBmBBBBBBBBBBBBmBBBBBBBBBBBBmBBBBB",
"BBBBmBBmBBBBMMBBBBmBBmBBBBMMBBBBmBBmBBBBMMBBBBmBBmBBBBMMBBmBBmBB",
"BBmBBBBBBmBBMMBBmBBBBBBmBBMMBBmBBBBBBmBBMMBBmBBBBBBmBBMMmBBBBBBm",
"mBBBBBBBBBBmmmmBBBBBBBBBBmmmmBBBBBBBBBBmmmmBBBBBBBBBBmmmmBBBBBBB",
"BBmBBBBBBmBBMMBBmBBBBBBmBBMMBBmBBBBBBmBBMMBBmBBBBBBmBBMMmBBBBBBm",
"BBBBmBBmBBBBMMBBBBmBBmBBBBMMBBBBmBBmBBBBMMBBBBmBBmBBBBMMBBmBBmBB",
"BBBBBBmBBBBBBBBBBBBmBBBBBBBBBBBBmBBBBBBBBBBBBmBBBBBBBBBBBBmBBBBB",
"mmmmmmmmmmmmmmmmmmmmmmmmmmmmmmmmmmmmmmmmmmmmmmmmmmmmmmmmmmmmmmmm",
"BBBBBBmBBBBBBBBBBBBmBBBBBBBBBBBBmBBBBBBBBBBBBmBBBBBBBBBBBBmBBBBB",
"BBBBmBBmBBBBMMBBBBmBBmBBBBMMBBBBmBBmBBBBMMBBBBmBBmBBBBMMBBmBBmBB",
"BBmBBBBBBmBBMMBBmBBBBBBmBBMMBBmBBBBBBmBBMMBBmBBBBBBmBBMMmBBBBBBm",
"mBBBBBBBBBBmmmmBBBBBBBBBBmmmmBBBBBBBBBBmmmmBBBBBBBBBBmmmmBBBBBBB",
"BBmBBBBBBmBBMMBBmBBBBBBmBBMMBBmBBBBBBmBBMMBBmBBBBBBmBBMMmBBBBBBm",
"BBBBmBBmBBBBMMBBBBmBBmBBBBMMBBBBmBBmBBBBMMBBBBmBBmBBBBMMBBmBBmBB",
"BBBBBBmBBBBBBBBBBBBmBBBBBBBBBBBBmBBBBBBBBBBBBmBBBBBBBBBBBBmBBBBB",
"mmmmmmmmmmmmmmmmmmmmmmmmmmmmmmmmmmmmmmmmmmmmmmmmmmmmmmmmmmmmmmmm",
"BBBBBBmBBBBBBBBBBBBmBBBBBBBBBBBBmBBBBBBBBBBBBmBBBBBBBBBBBBmBBBBB",
"BBBBmBBmBBBBMMBBBBmBBmBBBBMMBBBBmBBmBBBBMMBBBBmBBmBBBBMMBBmBBmBB",
"BBmBBBBBBmBBMMBBmBBBBBBmBBMMBBmBBBBBBmBBMMBBmBBBBBBmBBMMmBBBBBBm",
"mBBBBBBBBBBmmmmBBBBBBBBBBmmmmBBBBBBBBBBmmmmBBBBBBBBBBmmmmBBBBBBB",
"BBmBBBBBBmBBMMBBmBBBBBBmBBMMBBmBBBBBBmBBMMBBmBBBBBBmBBMMmBBBBBBm",
"BBBBmBBmBBBBMMBBBBmBBmBBBBMMBBBBmBBmBBBBMMBBBBmBBmBBBBMMBBmBBmBB",
"BBBBBBmBBBBBBBBBBBBmBBBBBBBBBBBBmBBBBBBBBBBBBmBBBBBBBBBBBBmBBBBB",
"mmmmmmmmmmmmmmmmmmmmmmmmmmmmmmmmmmmmmmmmmmmmmmmmmmmmmmmmmmmmmmmm",
"BBBBBBmBBBBBBBBBBBBmBBBBBBBBBBBBmBBBBBBBBBBBBmBBBBBBBBBBBBmBBBBB",
"BBBBmBBmBBBBMMBBBBmBBmBBBBMMBBBBmBBmBBBBMMBBBBmBBmBBBBMMBBmBBmBB",
"BBmBBBBBBmBBMMBBmBBBBBBmBBMMBBmBBBBBBmBBMMBBmBBBBBBmBBMMmBBBBBBm",
"mBBBBBBBBBBmmmmBBBBBBBBBBmmmmBBBBBBBBBBmmmmBBBBBBBBBBmmmmBBBBBBB",
"BBmBBBBBBmBBMMBBmBBBBBBmBBMMBBmBBBBBBmBBMMBBmBBBBBBmBBMMmBBBBBBm",
"BBBBmBBmBBBBMMBBBBmBBmBBBBMMBBBBmBBmBBBBMMBBBBmBBmBBBBMMBBmBBmBB",
"BBBBBBmBBBBBBBBBBBBmBBBBBBBBBBBBmBBBBBBBBBBBBmBBBBBBBBBBBBmBBBBB",
"mmmmmmmmmmmmmmmmmmmmmmmmmmmmmmmmmmmmmmmmmmmmmmmmmmmmmmmmmmmmmmmm",
"BBBBBBmBBBBBBBBBBBBmBBBBBBBBBBBBmBBBBBBBBBBBBmBBBBBBBBBBBBmBBBBB",
"BBBBmBBmBBBBMMBBBBmBBmBBBBMMBBBBmBBmBBBBMMBBBBmBBmBBBBMMBBmBBmBB",
"BBmBBBBBBmBBMMBBmBBBBBBmBBMMBBmBBBBBBmBBMMBBmBBBBBBmBBMMmBBBBBBm",
"mBBBBBBBBBBmmmmBBBBBBBBBBmmmmBBBBBBBBBBmmmmBBBBBBBBBBmmmmBBBBBBB",
"BBmBBBBBBmBBMMBBmBBBBBBmBBMMBBmBBBBBBmBBMMBBmBBBBBBmBBMMmBBBBBBm",
"BBBBmBBmBBBBMMBBBBmBBmBBBBMMBBBBmBBmBBBBMMBBBBmBBmBBBBMMBBmBBmBB",
"BBBBBBmBBBBBBBBBBBBmBBBBBBBBBBBBmBBBBBBBBBBBBmBBBBBBBBBBBBmBBBBB",
"mmmmmmmmmmmmmmmmmmmmmmmmmmmmmmmmmmmmmmmmmmmmmmmmmmmmmmmmmmmmmmmm"
};